images/matic_da7b87.svg

<svg fill="none" height="1024" viewBox="0 0 1024 1024" width="1024" xmlns="http://www.w3.org/2000/svg"><circle cx="512" cy="512" fill="#8247e5" r="512"/><path d="m681.469 402.456c-12.28-7.144-28.245-7.144-41.753 0l-95.788 54.772-65.086 35.721-95.787 54.772c-12.281 7.144-28.245 7.144-41.754 0l-76.139-42.865c-12.28-7.144-20.876-20.242-20.876-34.531v-84.539c0-14.288 7.368-27.386 20.876-34.53l74.911-41.675c12.28-7.144 28.245-7.144 41.754 0l74.91 41.675c12.281 7.144 20.877 20.242 20.877 34.53v54.772l65.086-36.912v-54.772c0-14.288-7.368-27.386-20.876-34.53l-138.769-78.586c-12.281-7.144-28.245-7.144-41.754 0l-141.225 78.586c-13.509 7.144-20.877 20.242-20.877 34.53v158.363c0 14.288 7.368 27.386 20.877 34.53l141.225 78.586c12.281 7.145 28.245 7.145 41.754 0l95.787-53.581 65.086-36.912 95.788-53.581c12.28-7.144 28.245-7.144 41.753 0l74.911 41.674c12.28 7.145 20.877 20.242 20.877 34.531v84.539c0 14.289-7.369 27.386-20.877 34.53l-74.911 42.866c-12.28 7.144-28.245 7.144-41.753 0l-74.911-41.675c-12.28-7.144-20.877-20.242-20.877-34.53v-54.772l-65.086 36.911v54.772c0 14.289 7.368 27.387 20.877 34.531l141.225 78.586c12.28 7.144 28.245 7.144 41.753 0l141.225-78.586c12.281-7.144 20.877-20.242 20.877-34.531v-158.362c0-14.289-7.368-27.386-20.877-34.531z" fill="#fff"/></svg>

<svg width="1024" height="1024" viewBox="0 0 1024 1024" fill="none" xmlns="http://www.w3.org/2000/svg">
<circle cx="512" cy="512" r="512" fill="#8247E5"/>
<path d="M681.469 402.456C669.189 395.312 653.224 395.312 639.716 402.456L543.928 457.228L478.842 492.949L383.055 547.721C370.774 554.865 354.81 554.865 341.301 547.721L265.162 504.856C252.882 497.712 244.286 484.614 244.286 470.325V385.786C244.286 371.498 251.654 358.4 265.162 351.256L340.073 309.581C352.353 302.437 368.318 302.437 381.827 309.581L456.737 351.256C469.018 358.4 477.614 371.498 477.614 385.786V440.558L542.7 403.646V348.874C542.7 334.586 535.332 321.488 521.824 314.344L383.055 235.758C370.774 228.614 354.81 228.614 341.301 235.758L200.076 314.344C186.567 321.488 179.199 334.586 179.199 348.874V507.237C179.199 521.525 186.567 534.623 200.076 541.767L341.301 620.353C353.582 627.498 369.546 627.498 383.055 620.353L478.842 566.772L543.928 529.86L639.716 476.279C651.996 469.135 667.961 469.135 681.469 476.279L756.38 517.953C768.66 525.098 777.257 538.195 777.257 552.484V637.023C777.257 651.312 769.888 664.409 756.38 671.553L681.469 714.419C669.189 721.563 653.224 721.563 639.716 714.419L564.805 672.744C552.525 665.6 543.928 652.502 543.928 638.214V583.442L478.842 620.353V675.125C478.842 689.414 486.21 702.512 499.719 709.656L640.944 788.242C653.224 795.386 669.189 795.386 682.697 788.242L823.922 709.656C836.203 702.512 844.799 689.414 844.799 675.125V516.763C844.799 502.474 837.431 489.377 823.922 482.232L681.469 402.456Z" fill="white"/>
</svg>
